X: 458
T: A Walk In The Shire
R: polka
M: 2/4
K: Cmajor
|:"C"efed c2G2|"F"A2F2 c2BA|"C"G2GF ECDE|"G"DCB,A, G,2G2|
"C"efed c2E2|"F"FGAB c4|"G"dcBA GECE|"G7"D2G2 "C"C4|
"Am"cdcB A2E2|"F"FGAB c2BA|"C"G2GF ECCD|"G"ECDE D4|
"Am"cdcB A2c2|"F"FGAF c4|"G"GFED FEDC|"G7"B,DG,B, "C"C4:|

